X: 29
T: Faulx mesdisans
N: Derived from Bus3022-Faulx_mesdisans.krn
C: Antoine Busnoys
%%abc-version 2.0
%%abcx-abcm2ps-target-version 5.9.1 (29 Sep 2008)
%%abc-creator hum2abc beta
%%abcx-conversion-date 2019/02/16 20:26:07
%%abc-edited-by Jesse Rodin
%%abc-edited-by Chris Gage 04-20-2015
%%abcx-initial-encoding-date 2015/05/05/
%%humdrum-veritas 635052185
%%humdrum-veritas-data 3385925747
%%linebreak <none>
%%barnumbers 0
L: 1/4
M: 2/1
Q: 1/2=120
V: 1 clef=treble-8
V: 2 clef=treble-8
V: 3 clef=bass
K: F
[V:1] z8 | 
[V:2] z8 | 
[V:3] F,,6E,,2 | 
[V:1] z8 | 
[V:2] F6E2 | 
[V:3] F,,4G,,4 | 
[V:1] f6e2 | 
[V:2] F4G4 | 
[V:3] F,,4C,4 | 
[V:1] f4g4 | 
[V:2] F4B4 | 
[V:3] D,4E,4 | 
[V:1] f4b4 | 
[V:2] A4G4 | 
[V:3] F,2F,4E,2 | 
[V:1] a4g4 | 
[V:2] F2F4E2 | 
[V:3] F,4C,4 | 
[V:1] f2f4e2 | 
[V:2] F2A2G4 | 
[V:3] D,2F,2C,4 | 
[V:1] f6d2- | 
[V:2] F3GA2B2- | 
[V:3] D,6B,,2- | 
[V:1] d2cBA4 | 
[V:2] B2AGF4 | 
[V:3] B,,2C,2D,3C, | 
[V:1] B2c3FA2 | 
[V:2] G2A2F4 | 
[V:3] B,,2A,,3F,,F,2- | 
[V:1] G4F2A2- | 
[V:2] z2B2A2c2- | 
[V:3] F,2E,2F,4 | 
[V:1] AGF4E2 | 
[V:2] cBA2G4 | 
[V:3] E,2F,2C,4 | 
[V:1] F4z4 | 
[V:2] F6G2 | 
[V:3] z2D,3C,B,,2 | 
[V:1] f6g2 | 
[V:2] A4B4 | 
[V:3] A,,2D,4E,2 | 
[V:1] a4b4 | 
[V:2] A2F2G4 | 
[V:3] C,2F,4E,2 | 
[V:1] a2f2g4 | 
[V:2] F2B3AGF | 
[V:3] F,2D,2E,4 | 
[V:1] f3ga2b2- | 
[V:2] A3Bc2d2- | 
[V:3] D,4C,2B,,2- | 
[V:1] bagfa2g2- | 
[V:2] dcBAc2B2- | 
[V:3] B,,C,D,2C,2E,2- | 
[V:1] gff4e2 | 
[V:2] BAGFG4 | 
[V:3] E,F,D,2C,4 | 
[V:1] f8 | 
[V:2] F4z4 | 
[V:3] D,2F,4E,2 | 
[V:1] z8 | 
[V:2] c4A2B2- | 
[V:3] F,3E,F,2G,2 | 
[V:1] z4c'4 | 
[V:2] B2AGF3E | 
[V:3] E,4F,2z2 | 
[V:1] a2b4ag | 
[V:2] F2G2E4 | 
[V:3] z8 | 
[V:1] f3ef2g2 | 
[V:2] F2A4B2 | 
[V:3] z8 | 
[V:1] e4f2a2- | 
[V:2] G4F4 | 
[V:3] C,4D,2F,2- | 
[V:1] a2b2g4 | 
[V:2] c2d2e4 | 
[V:3] F,2B,,2C,4 | 
[V:1] f4e2f2- | 
[V:2] f3ec2d2- | 
[V:3] F,,4z4 | 
[V:1] fga2b2g2- | 
[V:2] dcBAG3A | 
[V:3] F,4E,3F, | 
[V:1] g2a2f2g2- | 
[V:2] B2c2d2e2- | 
[V:3] G,2F,4E,2 | 
[V:1] gfe2d4 | 
[V:2] edc4=B2 | 
[V:3] C,2E,2F,2G,2 | 
[V:1] c3de2f2- | 
[V:2] c4c2A2 | 
[V:3] C,6D,2- | 
[V:1] f2g2e3f | 
[V:2] B4c4- | 
[V:3] D,2E,2C,3D, | 
[V:1] g2a4b2 | 
[V:2] c4d4 | 
[V:3] E,2F,4G,2 | 
[V:1] g2c'4=b2 | 
[V:2] e2c2d4 | 
[V:3] E,2A,2G,4 | 
[V:1] c'3baga2- | 
[V:2] c4z4 | 
[V:3] A,3G,F,E,F,2- | 
[V:1] agfef4 | 
[V:2] c4B4 | 
[V:3] F,E,D,C,D,4 | 
[V:1] e2f3ed2 | 
[V:2] c2A4G2 | 
[V:3] C,2D,3C,B,,2 | 
[V:1] c2d3cB2 | 
[V:2] A2F4E2 | 
[V:3] A,,2B,,3A,,G,,2 | 
[V:1] A4z4 | 
[V:2] F4z4 | 
[V:3] F,,4z4 | 
[V:1] z8 | 
[V:2] z8 | 
[V:3] A,,4B,,4 | 
[V:1] z8 | 
[V:2] A4B4 | 
[V:3] C,2D,3C,B,,2 | 
[V:1] A4B4 | 
[V:2] c4d4 | 
[V:3] A,,4G,,2G,2 | 
[V:1] c4d2e2 | 
[V:2] c3AB2c2 | 
[V:3] E,2F,2D,2C,2 | 
[V:1] c2f4e2 | 
[V:2] F2A2G4 | 
[V:3] F,4C,4 | 
[V:1] f4g2a2- | 
[V:2] F2B4A2 | 
[V:3] D,4E,2F,2- | 
[V:1] a2gfa2g2- | 
[V:2] d4c2e2- | 
[V:3] F,2E,D,F,2E,2 | 
[V:1] gfe2d4 | 
[V:2] edc4=B2 | 
[V:3] C,4G,4 | 
[V:1] c4B2c2- | 
[V:2] c4d2e2 | 
[V:3] C,4z4 | 
[V:1] c2BAG4 | 
[V:2] c4z4 | 
[V:3] C,4B,,2C,2- | 
[V:1] z4g4 | 
[V:2] c4B2c2- | 
[V:3] C,2B,,A,,G,,2z2 | 
[V:1] a4b4 | 
[V:2] c2BAG4 | 
[V:3] z4G,4 | 
[V:1] c'4b2g2- | 
[V:2] A4B4 | 
[V:3] F,2A,2G,2E,2- | 
[V:1] g2a3gf2- | 
[V:2] c4F4 | 
[V:3] E,2F,3E,D,2 | 
[V:1] f2e2f3e | 
[V:2] G4F3G | 
[V:3] C,4D,3E, | 
[V:1] dcd4cB | 
[V:2] A2B2c2d2 | 
[V:3] F,2B,,6 | 
[V:1] A4B2c2- | 
[V:2] c3BAGA2- | 
[V:3] F,4z2F,2 | 
[V:1] cFA2G4 | 
[V:2] AFF4E2 | 
[V:3] F,4C,4 | 
[V:1] F4z4 | 
[V:2] F6G2 | 
[V:3] z2D,3C,B,,2 | 
[V:1] f6g2 | 
[V:2] A4B4 | 
[V:3] A,,2D,4E,2 | 
[V:1] a4b4 | 
[V:2] A2F2G4 | 
[V:3] C,2F,4E,2 | 
[V:1] a2f2g4 | 
[V:2] F2B3AGF | 
[V:3] F,2D,2E,4 | 
[V:1] f3ga2b2- | 
[V:2] A3Bc2d2- | 
[V:3] D,3C,/B,,/A,,2G,,2 | 
[V:1] bc'd'3c'ba | 
[V:2] def3edc | 
[V:3] z2D,3E,F,2 | 
[V:1] b3agfg2- | 
[V:2] d3cBAB2- | 
[V:3] B,,3C,D,2G,,2 | 
[V:1] gfede3d | 
[V:2] BAGFG4 | 
[V:3] _E,2D,2C,4 | 
[V:1] f8 |]  
[V:2] F8 |]  
[V:3] F,,8 |]  



